22x22/actions/mail-message-new-list.svg

<svg xmlns="http://www.w3.org/2000/svg" viewBox="0 0 22 22">
  <defs id="defs3051">
    <style type="text/css" id="current-color-scheme">
      .ColorScheme-Text {
        color:#5d656b;
      }
      </style>
  </defs>
 <path 
    style="fill:currentColor;fill-opacity:1;stroke:none" 
    d="M 1 3 L 1 4 L 1 12 L 1 18 L 1 18.414062 L 1 19 L 2 19 L 8 19 L 14 19 L 14 18 L 8 18 L 2 18 L 2 17.414062 L 2.4628906 16.951172 L 8.7304688 10.683594 L 10.183594 12.134766 L 10.998047 12.949219 L 11 12.949219 L 11.816406 12.134766 L 13.269531 10.683594 L 14.585938 12 L 16 12 L 13.976562 9.9765625 L 19.728516 4.2226562 L 19.951172 4 L 20 4 L 20 4.2226562 L 20 12 L 21 12 L 21 3 L 20.951172 3 L 20 3 L 19.537109 3 L 2.4628906 3 L 2 3 L 1 3 z M 2 4 L 2.0488281 4 L 2.2714844 4.2226562 L 8.0234375 9.9765625 L 2 16 L 2 12 L 2 4.2226562 L 2 4 z M 3.4628906 4 L 18.537109 4 L 11 11.537109 L 3.4628906 4 z M 15 14 L 15 15 L 21 15 L 21 14 L 15 14 z M 15 16 L 15 17 L 21 17 L 21 16 L 15 16 z M 15 18 L 15 19 L 21 19 L 21 18 L 15 18 z "
    class="ColorScheme-Text"
    />  
</svg>

<svg xmlns="http://www.w3.org/2000/svg" viewBox="0 0 22 22"><path style="fill:currentColor;fill-opacity:1;stroke:none;color:#5d656b" d="M1 3v16h13v-1H2v-.586l.463-.463 6.267-6.267 1.454 1.45.814.815H11l.816-.814 1.454-1.451L14.586 12H16l-2.023-2.023 5.752-5.754L19.95 4H20v8h1V3H1zm1 1h.049l.222.223 5.752 5.754L2 16V4zm1.463 0h15.074L11 11.537 3.463 4zM15 14v1h6v-1h-6zm0 2v1h6v-1h-6zm0 2v1h6v-1h-6z"/></svg>
